assets/bank-tab/Asset/hdfcbank.svg

<svg width="81" height="14" viewBox="0 0 81 14" fill="none" xmlns="http://www.w3.org/2000/svg">
<path d="M81 0H0V14H81V0Z" fill="#1B4683"/>
<path d="M81 0H13.5143V14H81V0Z" fill="#1B4683"/>
<path d="M17.8091 10.314V3.68555H19.8992V5.91485H21.8748V3.68555H23.9936V10.314H21.8748V7.72801H19.8992V10.314H17.8091Z" fill="white"/>
<path d="M27.3149 5.3203H27.8589C28.2598 5.3203 28.5461 5.35003 28.7179 5.4392C28.8611 5.49865 28.9756 5.58782 29.0615 5.73644C29.1474 5.88506 29.2333 6.03368 29.2619 6.27147C29.3192 6.47954 29.3478 6.71733 29.3478 6.95513C29.3478 7.34154 29.2905 7.6685 29.176 7.93602C29.0615 8.20353 28.9183 8.38187 28.7179 8.50077C28.5175 8.61967 28.2312 8.67912 27.8303 8.67912H27.3149V5.35003V5.3203ZM28.1166 10.3139C28.6034 10.3139 29.0328 10.2842 29.3478 10.1653C29.6914 10.0761 29.9491 9.95725 30.1781 9.80863C30.3786 9.66001 30.579 9.45194 30.7508 9.21414C30.9226 8.94663 31.0944 8.64939 31.2089 8.26298C31.3234 7.87657 31.3807 7.43071 31.3807 6.9254C31.3807 6.1823 31.2375 5.58782 30.9798 5.05279C30.6935 4.54748 30.3213 4.1908 29.8632 3.98273C29.3764 3.77466 28.8324 3.65576 28.1739 3.65576H25.2534V10.2842H28.1166V10.3139Z" fill="white"/>
<path d="M32.354 10.314V3.68555H37.336V5.32036H34.4155V6.39043H36.7347V7.99552H34.4155V10.3437H32.354V10.314Z" fill="white"/>
<path d="M44.3796 6.21227H42.404C42.3754 5.88531 42.2609 5.61779 42.0604 5.43945C41.86 5.2611 41.6309 5.17193 41.316 5.17193C40.9438 5.17193 40.6288 5.32055 40.3998 5.61779C40.1707 5.91503 40.0562 6.39061 40.0562 7.07427C40.0562 7.54985 40.1135 7.87681 40.1993 8.11461C40.2852 8.3524 40.4284 8.53074 40.6288 8.64964C40.8006 8.76853 41.0297 8.82798 41.2874 8.82798C41.6023 8.82798 41.86 8.73881 42.0604 8.56046C42.2609 8.38212 42.3754 8.1146 42.404 7.75792H44.4369C44.3796 8.17405 44.3224 8.50102 44.2078 8.79826C44.0933 9.06577 43.8929 9.36301 43.6352 9.63053C43.3775 9.92777 43.0339 10.1358 42.6617 10.2845C42.2895 10.4331 41.86 10.5222 41.3733 10.5222C40.8865 10.5222 40.4284 10.4628 40.0276 10.3142C39.6267 10.1656 39.2545 9.95749 38.9968 9.68997C38.7105 9.42246 38.4814 9.0955 38.3383 8.73881C38.1092 8.2335 37.9947 7.69847 37.9947 7.07427C37.9947 6.56896 38.0806 6.09338 38.2237 5.64752C38.3955 5.20166 38.596 4.84496 38.8823 4.518C39.1686 4.22076 39.4836 3.98297 39.8271 3.83435C40.2566 3.62628 40.7434 3.53711 41.2874 3.53711C41.7455 3.53711 42.175 3.59656 42.6044 3.74518C43.0053 3.8938 43.3489 4.10187 43.6066 4.36938C43.8643 4.6369 44.0647 4.96386 44.2078 5.32055C44.3224 5.55834 44.3796 5.8853 44.4083 6.24199L44.3796 6.21227Z" fill="white"/>
<path d="M51.1079 5.17181C51.3942 5.17181 51.5947 5.17181 51.6806 5.20153C51.7951 5.23126 51.9096 5.32043 51.9669 5.4096C52.0528 5.49877 52.0814 5.61766 52.0814 5.76628C52.0814 5.94463 52.0241 6.06353 51.881 6.18242C51.7378 6.30132 51.5374 6.33104 51.1938 6.33104H50.3921V5.17181H51.0506H51.1079ZM51.6233 10.3141C52.11 10.3141 52.4822 10.3141 52.6827 10.2546C52.8831 10.1952 53.0835 10.1357 53.3126 10.0168C53.513 9.89792 53.6848 9.80875 53.7707 9.68985C53.9425 9.54123 54.057 9.33317 54.1429 9.1251C54.2288 8.88731 54.2861 8.61979 54.2861 8.35227C54.2861 7.96586 54.2002 7.60917 53.9997 7.34166C53.7993 7.07414 53.5416 6.8958 53.2267 6.80662C53.7707 6.44994 54.057 5.97435 54.057 5.4096C54.057 4.84484 53.7993 4.36926 53.3412 4.07202C52.969 3.83422 52.3964 3.71533 51.5947 3.71533H48.4165V10.3438H51.6519L51.6233 10.3141ZM51.2797 7.54972C51.7092 7.54972 51.9669 7.60918 52.11 7.69835C52.2246 7.81724 52.3105 7.96586 52.3105 8.14421C52.3105 8.32255 52.2532 8.50089 52.11 8.61979C51.9669 8.73869 51.7092 8.79813 51.3083 8.79813H50.4494V7.54972H51.3083H51.2797Z" fill="white"/>
<path d="M58.896 8.0847H57.5503L58.2088 5.67705L58.896 8.0847ZM56.9204 10.314L57.1494 9.452H59.2396L59.4973 10.314H61.5874L59.2968 3.68555H57.1494L54.8589 10.314H56.9204Z" fill="white"/>
<path d="M62.4751 10.314V3.68555H64.4221L66.6268 7.2227V3.68555H68.631V10.314H66.6268L64.4794 6.86601V10.314H62.4751Z" fill="white"/>
<path d="M70.0621 10.314V3.68555H72.095V5.88512L73.9847 3.68555H76.4471L74.0993 6.18236L76.6761 10.314H74.1565L72.6104 7.66856L72.0378 8.23331V10.314H70.0049H70.0621Z" fill="white"/>
<path d="M13.4857 0H0V14H13.4857V0Z" fill="#DC2227"/>
<path d="M11.1379 2.4375H2.37646V11.533H11.1379V2.4375Z" fill="white"/>
<path d="M7.44426 0H6.09857V14H7.44426V0Z" fill="white"/>
<path d="M13.4857 6.30127H0V7.6983H13.4857V6.30127Z" fill="white"/>
<path d="M8.76125 4.9043H4.72412V9.09538H8.76125V4.9043Z" fill="#1B4683"/>
</svg>

<svg xmlns="http://www.w3.org/2000/svg" width="81" height="14" fill="none" viewBox="0 0 81 14"><path fill="#1b4683" d="M81 0H0v14h81z"/><path fill="#1b4683" d="M81 0H13.514v14H81z"/><path fill="#fff" d="M17.81 10.314V3.686h2.09v2.229h1.975v-2.23h2.119v6.629h-2.12V7.728H19.9v2.586zm9.505-4.994h.544c.4 0 .687.03.859.12a.67.67 0 0 1 .343.296c.086.15.172.298.2.535a2.6 2.6 0 0 1 .087.684q0 .58-.172.981c-.114.268-.258.446-.458.565s-.487.178-.888.178h-.515zm.802 4.994c.486 0 .916-.03 1.23-.149.344-.089.602-.208.831-.356.2-.149.401-.357.573-.595.172-.267.343-.565.458-.951q.172-.579.172-1.338c0-.743-.143-1.337-.401-1.872q-.43-.758-1.117-1.07a4.2 4.2 0 0 0-1.69-.327h-2.92v6.628h2.864zm4.237 0V3.686h4.982V5.32h-2.92v1.07h2.319v1.606h-2.32v2.348h-2.061zM44.38 6.212h-1.976c-.029-.327-.143-.594-.344-.773-.2-.178-.43-.267-.744-.267a1.11 1.11 0 0 0-.916.446c-.23.297-.344.773-.344 1.456 0 .476.058.803.143 1.04q.13.357.43.536c.172.119.4.178.658.178q.473 0 .773-.268.3-.267.344-.802h2.033c-.057.416-.115.743-.23 1.04a2.9 2.9 0 0 1-.572.833c-.258.297-.601.505-.973.653a3.5 3.5 0 0 1-1.289.238c-.486 0-.945-.06-1.345-.208-.401-.148-.773-.357-1.031-.624a2.7 2.7 0 0 1-.659-.951 3.9 3.9 0 0 1-.343-1.665c0-.505.086-.98.229-1.426.172-.446.372-.803.658-1.13.287-.297.602-.535.945-.684.43-.208.916-.297 1.46-.297.459 0 .888.06 1.317.208.401.149.745.357 1.003.624.257.268.458.595.6.952.115.237.173.564.201.921zm6.728-1.04c.286 0 .487 0 .573.03.114.03.229.118.286.208.086.089.114.208.114.356a.49.49 0 0 1-.2.416c-.143.12-.344.149-.687.149h-.802v-1.16zm.515 5.142c.487 0 .86 0 1.06-.06.2-.059.4-.118.63-.237.2-.12.372-.208.458-.327.172-.149.286-.357.372-.565.086-.238.143-.505.143-.773 0-.386-.086-.743-.286-1.01a1.43 1.43 0 0 0-.773-.535c.544-.357.83-.833.83-1.397s-.258-1.04-.716-1.338c-.372-.238-.945-.357-1.746-.357h-3.178v6.629h3.235zM51.28 7.55c.43 0 .687.06.83.148.115.12.2.268.2.446a.6.6 0 0 1-.2.476c-.143.119-.4.178-.802.178h-.859V7.55h.86zm7.616.535H57.55l.659-2.408zm-1.976 2.229.23-.862h2.09l.257.862h2.09l-2.29-6.628h-2.148l-2.29 6.628zm5.555 0V3.686h1.947l2.205 3.537V3.686h2.004v6.628h-2.004l-2.148-3.448v3.448zm7.587 0V3.686h2.033v2.2l1.89-2.2h2.462L74.1 6.182l2.577 4.132h-2.52L72.61 7.669l-.572.564v2.081h-2.033z"/><path fill="#dc2227" d="M13.486 0H0v14h13.486z"/><path fill="#fff" d="M11.138 2.438H2.376v9.095h8.762z"/><path fill="#fff" d="M7.444 0H6.1v14h1.345z"/><path fill="#fff" d="M13.486 6.301H0v1.397h13.486z"/><path fill="#1b4683" d="M8.761 4.904H4.724v4.191h4.037z"/></svg>
